actions/22/timeline-use-zone-off.svg

<svg xmlns="http://www.w3.org/2000/svg" viewBox="0 0 22 22">
  <defs id="defs3051">
    <style type="text/css" id="current-color-scheme">
      .ColorScheme-Text {
        color:#808080;
      }
      </style>
  </defs>
 <path 
     style="fill:currentColor;fill-opacity:1;stroke:none" 
     d="M6.0234375 4.9941406l0 4-1 0 0-2-1 0 0 2-1 0 0 1 6.8613281 0 1.1386724-1.1386718 0-1.8613282-1 0 0 2-1.0000005 0 0-2-1 0 0 2-1 0 0-4-1 0zM12.023438 6.9941406l0 .8613282.861328-.8613282-.861328 0zM18 7l0 1.9941406-.976562 0 0-1.8964844-1 1 0 .8964844-.896485 0-1 1 4.896485 0 0-1-.02344 0L19 7 18 7zM7 11L4 14 4.9394531 14.939453 7 12.878906 7 11zM15 11l0 6 3-3-3-3z"
	 class="ColorScheme-Text"
     />
 <path 
     style="fill:currentColor;fill-opacity:1;stroke:none" 
     d="M 18.271261,2.9991929 2.9782908,18.292193 l 0.70703,0.707 15.2929702,-15.2930001 -0.70703,-0.707 z"
	 class="ColorScheme-Text"
     />
 <path 
     style="fill:currentColor;fill-opacity:1;stroke:none" 
     d="M18 11H19V17H18zM3 11L3 16.857422 4 15.857422 4 11 3 11z"
	 class="ColorScheme-Text"
     />
</svg>

<svg xmlns="http://www.w3.org/2000/svg" version="1.1" viewBox="0 0 22 22">
 <defs>
  <style id="current-color-scheme" type="text/css">
   .ColorScheme-Text { color:#808080; }
  </style>
 </defs>
 <path class="ColorScheme-Text" d="M 6.0234,4.9941 V 8.9941 H 5.0234 V 6.9941 H 4.0234 V 8.9941 H 3.0234 V 9.9941 H 9.8848 L 11.023,8.8555 V 6.9941 H 10.023 V 8.9941 H 9.0234 V 6.9941 H 8.0234 V 8.9941 H 7.0234 V 4.9941 Z M 12.023,6.9941 V 7.8555 L 12.885,6.9941 Z M 18,7 V 8.9941 H 17.023 V 7.0977 L 16.023,8.0977 V 8.9941 H 15.127 L 14.127,9.9941 H 19.023 V 8.9941 H 19 V 7 Z M 7,11 4,14 4.9395,14.939 7,12.879 Z M 15,11 V 17 L 18,14 Z" style="color:#808080;fill:currentColor"/>
 <path class="ColorScheme-Text" d="M 18.271,2.9992 2.9783,18.292 3.6853,18.999 18.978,3.7062 Z" style="color:#808080;fill:currentColor"/>
 <path class="ColorScheme-Text" d="M 18,11 H 19 V 17 H 18 Z M 3,11 V 16.857 L 4,15.857 V 11 Z" style="color:#808080;fill:currentColor"/>
</svg>
